X: 1
T: Ashley's Ride   (C)
S: Roaring Jelly collection
M: C|
R: reel
K: C
ge |\
"C"c2c2 c2Bc |  "G"d2d2 d2ed | "F"cBAG "G7"A2B2 | "C"cBcd "(G7)"e2ge |
"C"c2c2 c2Bc | "Dm"d2d2 d2fd | "F"cBAG "G7"A2B2 | "C"c4 c2 :|
|: cd |\
"C"e2e2 e2de |  "F"f2f2 f2ge | "G"d2d2 d2cd | "C"e2e2 e2ge |
"Am"c2c2 c2Bc | "Dm"d2d2 d2fd | "F"cBAG "G7"A2B2 | "C"c4 C2 :|

%%sep 1 1 500
%%sep 1 1 500
